assets/compare/atm.svg

<svg width="28" height="29" viewBox="0 0 28 29" fill="none" xmlns="http://www.w3.org/2000/svg">
<path d="M2.33301 24.2335H25.6663V26.5669H2.33301V24.2335ZM4.66634 14.9002H6.99967V23.0669H4.66634V14.9002ZM10.4997 14.9002H12.833V23.0669H10.4997V14.9002ZM15.1663 14.9002H17.4997V23.0669H15.1663V14.9002ZM20.9997 14.9002H23.333V23.0669H20.9997V14.9002ZM2.33301 9.06685L13.9997 3.23352L25.6663 9.06685V13.7335H2.33301V9.06685ZM4.66634 10.5089V11.4002H23.333V10.5089L13.9997 5.84219L4.66634 10.5089ZM13.9997 10.2335C13.6903 10.2335 13.3935 10.1106 13.1747 9.89181C12.9559 9.67302 12.833 9.37627 12.833 9.06685C12.833 8.75743 12.9559 8.46069 13.1747 8.2419C13.3935 8.0231 13.6903 7.90019 13.9997 7.90019C14.3091 7.90019 14.6058 8.0231 14.8246 8.2419C15.0434 8.46069 15.1663 8.75743 15.1663 9.06685C15.1663 9.37627 15.0434 9.67302 14.8246 9.89181C14.6058 10.1106 14.3091 10.2335 13.9997 10.2335Z" fill="#5BB5A2"/>
</svg>

<svg xmlns="http://www.w3.org/2000/svg" width="28" height="29" fill="none"><path fill="#5BB5A2" d="M2.333 24.233h23.333v2.334H2.333v-2.334ZM4.666 14.9H7v8.167H4.666V14.9Zm5.834 0h2.333v8.167H10.5V14.9Zm4.666 0H17.5v8.167h-2.334V14.9Zm5.834 0h2.333v8.167H21V14.9ZM2.333 9.067 14 3.234l11.666 5.833v4.666H2.333V9.067Zm2.333 1.442v.891h18.667v-.891L14 5.842 4.666 10.51ZM14 10.233A1.167 1.167 0 1 1 14 7.9a1.167 1.167 0 0 1 0 2.333Z"/></svg>
